X: 0
T: Cuir Sa Chist Mhoir Mi
T: Put Me In The Big Chest
C: Trad
O: Cape Breton
R: reel
M: 4/4
L: 1/8
Q:297
K: Amaj
|:EFAB c2 cf|ecBA F2 AF|EFAB cB cf|1ecBc A2AF:|2ecBc A2Ac||
|:efec eAAc|efec BABc|efec efaf|ecBc A2Ac:| 